build/logo/SkyllaSolid.svg

<svg xmlns="http://www.w3.org/2000/svg" fill="none" viewBox="0 0 24 24" focusable="false"><path d="M0 0H24V24H0z"/><path fill="#74767B" fill-rule="evenodd" d="M20.083 11.9906L20.083 16.2955C20.083 17.4846 19.9933 19.7395 17.8408 19.7395C16.5327 19.7395 16.3177 19.1035 16.149 18.6046C16.0401 18.2825 15.9505 18.0175 15.5987 18.0175C15.3113 18.0175 15.2541 18.2826 15.1764 18.643C15.0115 19.4074 14.7541 20.6005 12.0112 20.6005C9.26834 20.6005 9.01096 19.4074 8.84604 18.643C8.7683 18.2826 8.7111 18.0175 8.42377 18.0175C8.09138 18.0175 8.05267 18.254 8.00393 18.5518C7.92119 19.0574 7.80955 19.7395 6.18161 19.7395C4.02914 19.7395 3.93892 17.4846 3.93946 16.2955L3.93946 11.9906C3.93946 7.71099 7.55331 4.2417 12.0112 4.2417C16.4691 4.2417 20.083 7.71099 20.083 11.9906ZM9.99802 12.0242C11.1231 12.0242 12.0352 11.1486 12.0352 10.0686C12.0352 8.98845 11.1231 8.11287 9.99802 8.11287C8.87294 8.11287 7.96088 8.98845 7.96088 10.0686C7.96088 11.1486 8.87294 12.0242 9.99802 12.0242Z"/></svg>

<svg xmlns="http://www.w3.org/2000/svg" fill="none" viewBox="0 0 24 24" focusable="false"><path fill="#74767B" fill-rule="evenodd" d="M20.08 11.99v4.3c0 1.19-.09 3.44-2.24 3.44-1.31 0-1.53-.63-1.7-1.13-.1-.32-.19-.59-.55-.59-.28 0-.34.27-.42.63-.16.76-.42 1.96-3.16 1.96-2.75 0-3-1.2-3.17-1.96-.08-.36-.13-.63-.42-.63-.33 0-.37.24-.42.54-.08.5-.2 1.18-1.82 1.18-2.16 0-2.25-2.25-2.25-3.44v-4.3c0-4.28 3.62-7.75 8.08-7.75 4.45 0 8.07 3.47 8.07 7.75m-10.09.03c1.13 0 2.04-.88 2.04-1.96s-.91-1.95-2.04-1.95c-1.12 0-2.03.87-2.03 1.95s.91 1.96 2.03 1.96"/></svg>
